.gitbook/assets/Hero Check.svg

<svg width="1990" height="480" viewBox="0 0 1990 480" fill="none" xmlns="http://www.w3.org/2000/svg">
<rect x="0.5" y="0.5" width="1989" height="479" fill="url(#paint0_linear_1045_863)"/>
<rect x="0.5" y="0.5" width="1989" height="479" stroke="black"/>
<rect x="0.5" y="0.5" width="1989" height="479" stroke="black" stroke-opacity="0.2"/>
<circle cx="128" cy="112" r="86" stroke="#65E4EA" stroke-width="8"/>
<path d="M165.174 82.6522L110.722 137.435L86.913 110.206" stroke="#65E4EA" stroke-width="8" stroke-linecap="round" stroke-linejoin="round"/>
<path d="M325.091 168.705C316.152 168.705 308.462 166.811 302.023 163.023C295.621 159.197 290.697 153.894 287.25 147.114C283.841 140.333 282.136 132.53 282.136 123.705C282.136 114.765 283.86 106.924 287.307 100.182C290.792 93.4015 295.735 88.1174 302.136 84.3295C308.538 80.5038 316.152 78.5909 324.977 78.5909C332.591 78.5909 339.258 79.9735 344.977 82.7386C350.697 85.5038 355.223 89.3864 358.557 94.3864C361.89 99.3864 363.727 105.258 364.068 112H341.227C340.583 107.644 338.879 104.14 336.114 101.489C333.386 98.7992 329.807 97.4545 325.375 97.4545C321.625 97.4545 318.348 98.4773 315.545 100.523C312.78 102.53 310.621 105.466 309.068 109.33C307.515 113.193 306.739 117.871 306.739 123.364C306.739 128.932 307.496 133.667 309.011 137.568C310.564 141.47 312.742 144.443 315.545 146.489C318.348 148.534 321.625 149.557 325.375 149.557C328.14 149.557 330.621 148.989 332.818 147.852C335.053 146.716 336.89 145.068 338.33 142.909C339.807 140.712 340.773 138.08 341.227 135.011H364.068C363.689 141.678 361.871 147.549 358.614 152.625C355.394 157.663 350.943 161.602 345.261 164.443C339.58 167.284 332.856 168.705 325.091 168.705ZM403.77 116.545V167H379.565V50.6364H403.088V95.125H404.111C406.08 89.9735 409.262 85.9394 413.656 83.0227C418.05 80.0682 423.562 78.5909 430.19 78.5909C436.251 78.5909 441.535 79.9167 446.043 82.5682C450.588 85.1818 454.111 88.9508 456.611 93.875C459.149 98.7614 460.399 104.614 460.361 111.432V167H436.156V115.75C436.194 110.371 434.83 106.186 432.065 103.193C429.338 100.201 425.512 98.7045 420.588 98.7045C417.293 98.7045 414.376 99.4053 411.838 100.807C409.338 102.208 407.368 104.254 405.929 106.943C404.527 109.595 403.808 112.795 403.77 116.545ZM519.182 168.705C510.205 168.705 502.477 166.886 496 163.25C489.561 159.576 484.598 154.386 481.114 147.682C477.629 140.939 475.886 132.966 475.886 123.761C475.886 114.784 477.629 106.905 481.114 100.125C484.598 93.3447 489.504 88.0606 495.83 84.2727C502.193 80.4848 509.655 78.5909 518.216 78.5909C523.973 78.5909 529.333 79.5189 534.295 81.375C539.295 83.1932 543.652 85.9394 547.364 89.6136C551.114 93.2879 554.03 97.9091 556.114 103.477C558.197 109.008 559.239 115.485 559.239 122.909V129.557H485.545V114.557H536.455C536.455 111.072 535.697 107.985 534.182 105.295C532.667 102.606 530.564 100.504 527.875 98.9886C525.223 97.4356 522.136 96.6591 518.614 96.6591C514.939 96.6591 511.682 97.5114 508.841 99.2159C506.038 100.883 503.841 103.136 502.25 105.977C500.659 108.78 499.845 111.905 499.807 115.352V129.614C499.807 133.932 500.602 137.663 502.193 140.807C503.822 143.951 506.114 146.375 509.068 148.08C512.023 149.784 515.527 150.636 519.58 150.636C522.269 150.636 524.731 150.258 526.966 149.5C529.201 148.742 531.114 147.606 532.705 146.091C534.295 144.576 535.508 142.72 536.341 140.523L558.727 142C557.591 147.379 555.261 152.076 551.739 156.091C548.254 160.068 543.746 163.174 538.216 165.409C532.723 167.606 526.379 168.705 519.182 168.705ZM614.466 168.705C605.527 168.705 597.837 166.811 591.398 163.023C584.996 159.197 580.072 153.894 576.625 147.114C573.216 140.333 571.511 132.53 571.511 123.705C571.511 114.765 573.235 106.924 576.682 100.182C580.167 93.4015 585.11 88.1174 591.511 84.3295C597.913 80.5038 605.527 78.5909 614.352 78.5909C621.966 78.5909 628.633 79.9735 634.352 82.7386C640.072 85.5038 644.598 89.3864 647.932 94.3864C651.265 99.3864 653.102 105.258 653.443 112H630.602C629.958 107.644 628.254 104.14 625.489 101.489C622.761 98.7992 619.182 97.4545 614.75 97.4545C611 97.4545 607.723 98.4773 604.92 100.523C602.155 102.53 599.996 105.466 598.443 109.33C596.89 113.193 596.114 117.871 596.114 123.364C596.114 128.932 596.871 133.667 598.386 137.568C599.939 141.47 602.117 144.443 604.92 146.489C607.723 148.534 611 149.557 614.75 149.557C617.515 149.557 619.996 148.989 622.193 147.852C624.428 146.716 626.265 145.068 627.705 142.909C629.182 140.712 630.148 138.08 630.602 135.011H653.443C653.064 141.678 651.246 147.549 647.989 152.625C644.769 157.663 640.318 161.602 634.636 164.443C628.955 167.284 622.231 168.705 614.466 168.705ZM690.872 141.886L690.929 112.852H694.452L722.406 79.7273H750.19L712.634 123.591H706.895L690.872 141.886ZM668.94 167V50.6364H693.145V167H668.94ZM723.486 167L697.804 128.989L713.94 111.886L751.838 167H723.486Z" fill="#65E4EA"/>
<defs>
<linearGradient id="paint0_linear_1045_863" x1="995" y1="-106.873" x2="995" y2="381.274" gradientUnits="userSpaceOnUse">
<stop stop-color="#65DDEA" stop-opacity="0.4"/>
<stop offset="1" stop-color="#65DDEA" stop-opacity="0"/>
</linearGradient>
</defs>
</svg>

<svg xmlns="http://www.w3.org/2000/svg" width="1990" height="480" fill="none" viewBox="0 0 1990 480"><path fill="url(#a)" d="M.5.5h1989v479H.5z"/><path stroke="#000" d="M.5.5h1989v479H.5z"/><path stroke="#000" stroke-opacity=".2" d="M.5.5h1989v479H.5z"/><circle cx="128" cy="112" r="86" stroke="#65E4EA" stroke-width="8"/><path stroke="#65E4EA" stroke-linecap="round" stroke-linejoin="round" stroke-width="8" d="m165.174 82.652-54.452 54.783-23.809-27.229"/><path fill="#65E4EA" d="M325.091 168.705c-8.939 0-16.629-1.894-23.068-5.682-6.402-3.826-11.326-9.129-14.773-15.909-3.409-6.781-5.114-14.584-5.114-23.409 0-8.94 1.724-16.781 5.171-23.523 3.485-6.78 8.428-12.065 14.829-15.853 6.402-3.825 14.016-5.738 22.841-5.738 7.614 0 14.281 1.383 20 4.148 5.72 2.765 10.246 6.647 13.58 11.647 3.333 5 5.17 10.872 5.511 17.614h-22.841c-.644-4.356-2.348-7.86-5.113-10.511-2.728-2.69-6.307-4.035-10.739-4.035-3.75 0-7.027 1.023-9.83 3.069-2.765 2.007-4.924 4.943-6.477 8.807-1.553 3.863-2.329 8.541-2.329 14.034 0 5.568.757 10.303 2.272 14.204 1.553 3.902 3.731 6.875 6.534 8.921 2.803 2.045 6.08 3.068 9.83 3.068 2.765 0 5.246-.568 7.443-1.705 2.235-1.136 4.072-2.784 5.512-4.943 1.477-2.197 2.443-4.829 2.897-7.898h22.841c-.379 6.667-2.197 12.538-5.454 17.614-3.22 5.038-7.671 8.977-13.353 11.818-5.681 2.841-12.405 4.262-20.17 4.262Zm78.679-52.16V167h-24.205V50.636h23.523v44.489h1.023c1.969-5.151 5.151-9.186 9.545-12.102 4.394-2.955 9.906-4.432 16.534-4.432 6.061 0 11.345 1.326 15.853 3.977 4.545 2.614 8.068 6.383 10.568 11.307 2.538 4.886 3.788 10.739 3.75 17.557V167h-24.205v-51.25c.038-5.379-1.326-9.564-4.091-12.557-2.727-2.992-6.553-4.489-11.477-4.489-3.295 0-6.212.701-8.75 2.103-2.5 1.401-4.47 3.447-5.909 6.136-1.402 2.652-2.121 5.852-2.159 9.602Zm115.412 52.16c-8.977 0-16.705-1.819-23.182-5.455-6.439-3.674-11.402-8.864-14.886-15.568-3.485-6.743-5.228-14.716-5.228-23.921 0-8.977 1.743-16.856 5.228-23.636 3.484-6.78 8.39-12.064 14.716-15.852 6.363-3.788 13.825-5.682 22.386-5.682 5.757 0 11.117.928 16.079 2.784 5 1.818 9.357 4.564 13.069 8.239 3.75 3.674 6.666 8.295 8.75 13.863 2.083 5.531 3.125 12.008 3.125 19.432v6.648h-73.694v-15h50.91c0-3.485-.758-6.572-2.273-9.262a16.285 16.285 0 0 0-6.307-6.306c-2.652-1.553-5.739-2.33-9.261-2.33-3.675 0-6.932.852-9.773 2.557a17.93 17.93 0 0 0-6.591 6.761c-1.591 2.803-2.405 5.928-2.443 9.375v14.262c0 4.318.795 8.049 2.386 11.193 1.629 3.144 3.921 5.568 6.875 7.273 2.955 1.704 6.459 2.556 10.512 2.556 2.689 0 5.151-.378 7.386-1.136 2.235-.758 4.148-1.894 5.739-3.409 1.59-1.515 2.803-3.371 3.636-5.568L558.727 142c-1.136 5.379-3.466 10.076-6.988 14.091-3.485 3.977-7.993 7.083-13.523 9.318-5.493 2.197-11.837 3.296-19.034 3.296Zm95.284 0c-8.939 0-16.629-1.894-23.068-5.682-6.402-3.826-11.326-9.129-14.773-15.909-3.409-6.781-5.114-14.584-5.114-23.409 0-8.94 1.724-16.781 5.171-23.523 3.485-6.78 8.428-12.065 14.829-15.853 6.402-3.825 14.016-5.738 22.841-5.738 7.614 0 14.281 1.383 20 4.148 5.72 2.765 10.246 6.647 13.58 11.647 3.333 5 5.17 10.872 5.511 17.614h-22.841c-.644-4.356-2.348-7.86-5.113-10.511-2.728-2.69-6.307-4.035-10.739-4.035-3.75 0-7.027 1.023-9.83 3.069-2.765 2.007-4.924 4.943-6.477 8.807-1.553 3.863-2.329 8.541-2.329 14.034 0 5.568.757 10.303 2.272 14.204 1.553 3.902 3.731 6.875 6.534 8.921 2.803 2.045 6.08 3.068 9.83 3.068 2.765 0 5.246-.568 7.443-1.705 2.235-1.136 4.072-2.784 5.512-4.943 1.477-2.197 2.443-4.829 2.897-7.898h22.841c-.379 6.667-2.197 12.538-5.454 17.614-3.22 5.038-7.671 8.977-13.353 11.818-5.681 2.841-12.405 4.262-20.17 4.262Zm76.406-26.819.057-29.034h3.523l27.954-33.125h27.784l-37.556 43.864h-5.739l-16.023 18.295ZM668.94 167V50.636h24.205V167H668.94Zm54.546 0-25.682-38.011 16.136-17.103L751.838 167h-28.352Z"/><defs><linearGradient id="a" x1="995" x2="995" y1="-106.873" y2="381.274" gradientUnits="userSpaceOnUse"><stop stop-color="#65DDEA" stop-opacity=".4"/><stop offset="1" stop-color="#65DDEA" stop-opacity="0"/></linearGradient></defs></svg>
